images/8fe5d89f.Analyse.svg

<?xml version="1.0" encoding="UTF-8" standalone="no"?>
<svg width="600px" height="600px" viewBox="0 0 600 600" version="1.1" xmlns="http://www.w3.org/2000/svg" xmlns:xlink="http://www.w3.org/1999/xlink" xmlns:sketch="http://www.bohemiancoding.com/sketch/ns">
    <!-- Generator: Sketch 3.0.2 (7799) - http://www.bohemiancoding.com/sketch -->
    <title>Analyse</title>
    <description>Created with Sketch.</description>
    <defs></defs>
    <g id="Page-1" stroke="none" stroke-width="1" fill="none" fill-rule="evenodd" sketch:type="MSPage">
        <g id="Analyse" sketch:type="MSArtboardGroup" fill="#000000">
            <g id="icon_30116" sketch:type="MSLayerGroup" transform="translate(110.000000, 120.000000)">
                <path d="M247.833548,97.3963636 C215.884946,53.1572727 154.169677,43.2245455 109.979355,75.2113636 C65.7931183,107.198182 55.8722581,168.995455 87.8208602,213.234545 C116.108387,252.409091 167.735269,264.657273 209.870323,244.750909 C209.404516,246.276818 209.616989,247.995 210.626237,249.402273 C212.346452,251.770909 215.647957,252.302727 218.021935,250.588636 L290.205591,359.590909 C292.689892,363.031364 302.091828,360.466364 311.22,353.863636 C320.34,347.265 325.72129,339.12 323.232903,335.683636 L242.468602,232.895455 C244.834409,231.181364 245.369677,227.863636 243.649462,225.486818 C242.648387,224.083636 241.079355,223.351364 239.48172,223.310455 C271.565161,189.486818 276.129247,136.570909 247.833548,97.3963636 L247.833548,97.3963636 Z M219.104731,226.317273 C179.936129,254.671364 125.228387,245.867727 96.908172,206.648182 C68.587957,167.440909 77.3851613,112.663636 116.549677,84.3136364 C155.71828,55.9554545 210.426022,64.7631818 238.742151,103.978636 C267.066452,143.194091 258.273333,197.967273 219.104731,226.317273 L219.104731,226.317273 Z M378.725161,62.0468182 L374.557419,57.1336364 L349.800215,78.1731818 C346.968602,75.5713636 343.225806,73.9472727 339.074409,73.9472727 C335.638065,73.9472727 332.47957,75.06 329.872688,76.9172727 L270.51914,23.1218182 C271.434409,21.1131818 271.969677,18.8959091 271.969677,16.5436364 C271.969677,7.73181818 264.835484,0.593181818 256.03828,0.593181818 C247.241075,0.593181818 240.110968,7.73590909 240.110968,16.5436364 C240.110968,20.9904545 241.937419,25.0077273 244.871183,27.9 L219.325376,66.0763636 L224.678065,69.66 L250.289247,31.3772727 C252.078925,32.0727273 254.007527,32.49 256.042366,32.49 C260.152903,32.49 263.858925,30.8904545 266.686452,28.3295455 L325.508817,81.6381818 C324.046022,84.0518182 323.151183,86.8581818 323.151183,89.8895455 C323.151183,98.6972727 330.285376,105.84 339.078495,105.84 C347.879785,105.84 355.009892,98.6972727 355.009892,89.8895455 C355.009892,87.57 354.490968,85.3772727 353.596129,83.3890909 L378.725161,62.0468182 L378.725161,62.0468182 Z M256.03828,26.3372727 C250.636559,26.3372727 246.256344,21.9518182 246.256344,16.5436364 C246.256344,11.1354545 250.636559,6.75 256.03828,6.75 C261.44,6.75 265.820215,11.1354545 265.820215,16.5436364 C265.820215,21.9518182 261.44,26.3372727 256.03828,26.3372727 L256.03828,26.3372727 Z M339.074409,99.6913636 C333.676774,99.6913636 329.296559,95.3059091 329.296559,89.8977273 C329.296559,84.4895455 333.672688,80.1040909 339.074409,80.1040909 C344.476129,80.1040909 348.86043,84.4895455 348.86043,89.8977273 C348.86043,95.3059091 344.480215,99.6913636 339.074409,99.6913636 L339.074409,99.6913636 Z M93.9580645,84.5263636 L54.916129,49.1481818 C56.4156989,46.7181818 57.3227957,43.875 57.3227957,40.8068182 C57.3227957,31.995 50.1886022,24.8563636 41.3913978,24.8563636 C32.5941935,24.8563636 25.46,31.9990909 25.46,40.8068182 C25.46,43.3759091 26.1260215,45.7690909 27.2006452,47.9209091 L-0.694623656,71.6236364 L3.46903226,76.5327273 L31.1967742,52.9690909 C33.9670968,55.2968182 37.4933333,56.7531818 41.3913978,56.7531818 C44.7950538,56.7531818 47.9331183,55.665 50.5195699,53.8486364 L89.6391398,89.3004545 L93.9580645,84.5263636 L93.9580645,84.5263636 Z M31.6135484,40.8068182 C31.6135484,35.3986364 35.9896774,31.0131818 41.3913978,31.0131818 C46.7931183,31.0131818 51.1774194,35.3986364 51.1774194,40.8068182 C51.1774194,46.215 46.7972043,50.6004545 41.3913978,50.6004545 C35.9937634,50.6004545 31.6135484,46.215 31.6135484,40.8068182 L31.6135484,40.8068182 Z M211.30043,84.5509091 C206.438065,81.3681818 202.004731,79.5272727 201.404086,80.4477273 L181.905591,110.295 C176.270968,107.607273 169.986667,106.056818 163.330538,106.056818 C153.928602,106.056818 145.253978,109.088182 138.156559,114.185455 L114.286022,92.1559091 C113.53828,91.4645455 109.742366,94.3731818 105.803441,98.6522727 C101.864516,102.927273 99.2739785,106.956818 100.02172,107.644091 L100.02172,107.644091 L124.529677,130.262727 C121.68172,136.039091 120.03914,142.515 120.03914,149.391818 C120.03914,173.327727 139.41914,192.730909 163.326452,192.730909 C187.233763,192.730909 206.613763,173.327727 206.613763,149.391818 C206.613763,139.810909 203.467527,130.982727 198.208817,123.811364 L219.010753,91.98 L219.010753,91.9759091 C219.615484,91.0636364 216.15871,87.7336364 211.30043,84.5509091 L211.30043,84.5509091 Z M163.330538,176.657727 C148.289892,176.657727 136.097204,164.450455 136.097204,149.391818 C136.097204,134.333182 148.289892,122.125909 163.330538,122.125909 C178.371183,122.125909 190.563871,134.329091 190.563871,149.391818 C190.563871,164.450455 178.371183,176.657727 163.330538,176.657727 L163.330538,176.657727 Z" id="Shape" sketch:type="MSShapeGroup"></path>
            </g>
        </g>
    </g>
</svg>

<svg width="600" height="600" viewBox="0 0 600 600" xmlns="http://www.w3.org/2000/svg"><title>Analyse</title><path d="M357.834 217.396c-31.95-44.24-93.664-54.17-137.855-22.185-44.187 31.988-54.108 93.785-22.16 138.025 28.288 39.174 79.915 51.422 122.05 31.516-.465 1.527-.253 3.245.756 4.652 1.72 2.37 5.022 2.9 7.396 1.187l72.184 109c2.484 3.44 11.886.876 21.014-5.726 9.12-6.6 14.5-14.744 12.013-18.18l-80.764-102.79c2.364-1.713 2.9-5.03 1.18-7.407-1.002-1.403-2.57-2.136-4.168-2.177 32.083-33.823 36.647-86.74 8.352-125.914zm-138.73 8.92C179.937 254.672 125.23 245.87 96.91 206.65c-28.32-39.207-19.523-93.984 19.642-122.334 39.168-28.36 93.876-19.55 122.192 19.665 28.324 39.214 19.53 93.987-19.637 122.337zm159.62-164.27l-4.167-4.912-24.757 21.04c-2.83-2.603-6.574-4.227-10.726-4.227-3.436 0-6.594 1.113-9.2 2.97l-59.355-53.795c.914-2.01 1.45-4.226 1.45-6.578 0-8.812-7.135-15.95-15.932-15.95s-15.927 7.142-15.927 15.95c0 4.446 1.827 8.464 4.76 11.356l-25.545 38.176 5.353 3.584 25.61-38.283c1.79.696 3.72 1.113 5.754 1.113 4.11 0 7.817-1.6 10.644-4.16l58.823 53.308c-1.464 2.414-2.36 5.22-2.36 8.252 0 8.807 7.135 15.95 15.928 15.95 8.802 0 15.932-7.143 15.932-15.95 0-2.32-.52-4.513-1.414-6.5l25.13-21.343zM256.04 26.337c-5.4 0-9.782-4.384-9.782-9.792 0-5.41 4.38-9.794 9.782-9.794s9.782 4.385 9.782 9.794c0 5.408-4.38 9.793-9.782 9.793zm83.036 73.355c-5.397 0-9.777-4.384-9.777-9.792 0-5.408 4.376-9.794 9.777-9.794 5.402 0 9.786 4.386 9.786 9.794s-4.38 9.793-9.786 9.793zM93.958 84.527L54.916 49.148c1.5-2.43 2.407-5.273 2.407-8.34 0-8.813-7.134-15.952-15.932-15.952-8.796 0-15.93 7.143-15.93 15.95 0 2.57.666 4.963 1.74 7.115L-.694 71.625l4.164 4.91 27.727-23.565c2.77 2.327 6.296 3.783 10.194 3.783 3.405 0 6.543-1.088 9.13-2.904L89.64 89.3l4.318-4.774zm-62.344-43.72c0-5.407 4.376-9.793 9.777-9.793 5.403 0 9.787 4.386 9.787 9.794S46.797 50.6 41.39 50.6c-5.396 0-9.776-4.385-9.776-9.793zM211.3 84.552c-4.862-3.182-9.295-5.023-9.896-4.102l-19.498 29.847c-5.635-2.688-11.92-4.238-18.575-4.238-9.4 0-18.076 3.03-25.173 8.128l-23.87-22.03c-.75-.69-4.545 2.218-8.484 6.497-3.938 4.275-6.53 8.305-5.78 8.992l24.507 22.62c-2.848 5.775-4.49 12.25-4.49 19.128 0 23.936 19.38 43.34 43.286 43.34 23.908 0 43.288-19.404 43.288-43.34 0-9.58-3.146-18.41-8.405-25.58l20.8-31.832v-.004c.605-.912-2.85-4.242-7.71-7.425zm-47.97 92.108c-15.04 0-27.233-12.208-27.233-27.266 0-15.06 12.193-27.266 27.234-27.266 15.04 0 27.234 12.203 27.234 27.266 0 15.058-12.193 27.266-27.233 27.266z" fill="#000"/></svg>
